X:1
T:Совет превечный
T:Совет превечный
T:П. Г. Чесноков (1877–1944)
C:П. Г. Чесноков (1877–1944)
%%score 1 [ ( 2 3 ) ( 4 5 ) ]
L:1/8
Q:1/4=56
M:3/4
K:Bb
V:1 treble nm="Sopran" snm="S."
V:2 treble nm="S\nA"
V:3 treble 
V:4 bass nm="T\nB"
V:5 bass 
V:1
"^Медленно, но не очень""^Покойно, проникновенно" z2 | z6 | z6 |[M:4/4] z8 |[M:3/4] z6 | z6 | z6 | %7
w: |||||||
 z6 | z6 | z6 |!f!"^I" d3 G G G | A4 D D | (G3 B) A G | (G2 ^F2) z2 | d2 G G G G | e3 d B c | %16
w: |||Ра- дуй- ся, зем-|ле не- на-|се- * ян- на-|я! *|Ра- дуй- ся, ку- пи-|но не- о- па-|
 d3 B B2 | A2 G G c B | A2 A A B A | G3 G G2 | z6 | z2 D4- |!>(! D3 G G2!>)! |"^II" z6 | d3 B B2 | %25
w: ли- ма- я,|ра- дуй- ся, глу- би-|но не- у- до- бо-|зри- ма- я!|||||Ра- дуй- ся,|
 c2 G2 A B | c4 B A | B2- B z c2 | d3 d d d | d3 d d2 | d2 d d d d | d2 d2 z2 | z6 | d3 G G G | %34
w: мос- те, к~не- бе-|сем пре- во-|дяй, * и|лест- ви- це вы-|со- ка- я,|ю- же И- а- ков|ви- де.||Ра- дуй- ся, Бо-|
 A2 A A D2 | (G3 B) (AG) | G2 ^F2 z2 | d2 G G G G | (e3 d) B c | d2 B2 z2 | A3 A B A | G3 G c B | %42
w: жест- вен- на- я|ста- * мно *|ман- ны,|ра- дуй- ся, раз- ре-|ше- * ни- е|клят- вы,|ра- дуй- ся, А-|да- мо- во воз-|
 A3 A A A | G4 G G | G4- G z | z2 D4 | D4 G G | G6- | G6- | G2- G z |] %50
w: зва- ни- е, с~То-|бо- ю Гос-|подь, *|с~То-|бо- ю Гос-|подь!|||
V:2
!p! D2 | D4 D2 | D2 D2 D D |[M:4/4] G2 G G G G G G |[M:3/4] D2 D2 D D |!<(! D4 D2!<)! | %6
w: Со-|вет Пре-|веч- ный от- кры-|ва- я Те- бе, От- ро- ко-|ви- це, Гав- ри-|ил пред-|
 E2- E z E2 | F4!<(! F2!<)! | G2 G2!<(! G G!<)! |!mf!!>(! B4!p! A2!>)! | z2 (D4 | D) D D4 | %12
w: ста, * Те-|бе лоб-|за- я и ве-|ща- я:|Ра-|* дуй- ся,|
 (D2 C2 ^C2 | D3) D D2 | (F6 | E) E E2 (G2 | F2) F2 F2 | (E4- EG- | G) G G2 (^F2 | G6- | %20
w: ра- * *|* дуй- ся,|ра-|* дуй- ся, ра-|* дуй- ся,|ра- * *|* дуй- ся, ра-||
 [=EG]3) G G2 | (G4 ^F2 | G2) D2 D2 |!mf! D3 D!>(! D2- | D!>)! z!p! (D4 | E3) E E2 | (E2 G4- | %27
w: * дуй- ся,|ра- *|* дуй- ся!|Ра- дуй- ся,|* ра-|* дуй- ся,|ра- *|
 G)F F2- F z | z2 (^F4 | =E2) E2 E2 |!<(! (D4 G2!<)! |!<(! ^F3) F!<)! G2 |!mf! A3!>(! A A2!>)! | %33
w: * * ся, *|ра-|* дуй- ся,|ра- *|* дуй- ся,|ра- дуй- ся!|
 z2 (D4 | D) D D4 | (D2 C2 ^C2 | D3) D D2 | (F6 | E) E E2 ((G2 | F3)) F F2 | z2 E4- | E E E2 (EG | %42
w: Ра-|* дуй- ся,|ра- * *|* дуй- ся,|ра-|* дуй- ся, ра-|* дуй- ся!|Ра-|* дуй- ся, ра- *|
 G) G G2 (^F2 | G6- | G3) G G2 | (G4 ^F2 | G3) G G2 | (G6 | G3) G G2- | G2- G z |] %50
w: * дуй- ся, ра-||* дуй- ся,|ра- *|* дуй- ся,|ра-|* дуй- ся!||
V:3
 D2 | D4 D2 | D2 D2 D D |[M:4/4] D2 D D C C B, C |[M:3/4] C2 D2 D D | =B,4 B,2 | C2- C x C2 | %7
 D4 D2 | E2 E2 E E | G4 ^F2 | x2 D4 | D D D4 | (D2 C2 ^C2 | D3) D D2 | (D6 | C) C C2 E2 | %16
 D2 D2 D2 | (C6 | C) C C2 C2 | E6 | =E3 E E2 | (D6 | D2) D2 D2 | D3 D D2- | D x D4 | E3 E E2 | %26
 (E6 | D)D D2- D x | x2 (D4 | D2) D2 D2 | (D6 | D3) D E2 | ^F3 F F2 | z2 (D4 | D) D D4 | %35
 (D2 C2 ^C2 | D3) D D2 | (D6 | C) C C2 (E2 | D3) D D2 | x2 C4- | C C C2 (C2 | C) C C2 (D2 | E6 | %44
 =E3) E E2 | (D6 | D3) D D2 | (E6 | D3) D D2- | D2- D x |] %50
V:4
 B,2 | B,4 B,2 | A,2 A,2 A, A, |[M:4/4] G,2 G, G, G, G, G, G, |[M:3/4] G,2 ^F,2 F, F, | G,4 G,2 | %6
 G,2- G, z G,2 | B,4 B,2 | B,2 B,2 B, B, | D4 C2 | z2 (B,4 | A,) A, A,4 | (G,4- G,A,- | %13
 A,3) A, A,2 | (G,6 | G,) G, G,2 (F,2 | B,2) B,2 B,2 | (G,4 A,B, | C) C C2 ((C2 | B,2 E2 D2 | %20
 ^C3)) C C2 | (=C4 A,2 | B,2) B,2 B,2 | B,3 B, B,2- | B, z F,4- | F,3 F, F,2 | F,6- | %27
 F,F, F,2- F, z | z2 (C4 | B,2) B,2 B,2 | A,6- | A,3 A, A,2 | D3 C C2 | z2 (B,4 | A,) A, A,4 | %35
 (G,4- G,A,- | A,3) A, A,2 | G,6- | G, G, G,2 ((F,2 | B,3)) B, B,2 | z2 G,4- | G, G, G,2 (A,B, | %42
 C) C C2 (C2 | B,2 E2 D2 | ^C3) C C2 | (C6 | B,3) B, B,2 | (A,6 | [G,B,]3) [G,B,] [G,B,]2- | %49
 [G,B,]2- [G,B,] z |] %50
V:5
 G,2 | G,4 G,2 | F,2 F,2 F, F, |[M:4/4] E,2 E, E, E, E, E, E, |[M:3/4] D,2 D,2 D, D, | G,4 G,2 | %6
 C,2- C, x C,2 | B,,4 B,,2 | E,2 E,2 E, E, | D,4 D,2 | x2 (G,4 | F,) F, F,4 | (E,6 | D,3) D, C,2 | %14
 (=B,,6 | C,) C, C,2 (F,2 | B,,2) B,,2 B,,2 | (C,6 | D,) D, D,2 (D,2 | E,6 | A,,3) A,, A,,2 | %21
 (D,6 | G,2) G,2 G,2 | [B,,F,]3 [B,,F,] [B,,F,]2- | [B,,F,] x B,,4- | B,,3 B,, B,,2 | B,,6- | %27
 B,,B,, B,,2- B,, x | x2 (A,,4 | G,,2) G,,2 G,2 | (^F,4 =E,2 | D,3) D, A,2 | D,3 D, D,2 | z2 (G,4 | %34
 F,) F, F,4 | (E,6 | D,3) D, C,2 | (=B,,6 | C,) C, C,2 (F,2 | B,,3) B,, B,,2 | x2 C,4- | %41
 C, C, C,2 (C,2 | D,) D, D,2 (D,2 | E,6 | A,,3) A,, A,,2 | (D,6 | G,3) G, G,2 | (C,6 | %48
 [G,,D,]3) [G,,D,] [G,,D,]2- | [G,,D,]2- [G,,D,] x |] %50

